X:1
T:Capricciata
T:Capricciata
T:Adriano Banchieri (1568-1634)
C:Adriano Banchieri (1568-1634)
%%score [ 1 2 3 ]
L:1/8
M:2/2
K:C
V:1 treble nm="Soprano"
V:2 treble nm="Alto"
V:3 bass nm="Bass"
V:1
 c2 c c B2 G2 | A4 G4 | F2 F F E2 C2 | D4 C4 | z2 G2 c3 c | A3 A d3 d |1 B4 A2 c2- || %7
w: No- bi- li spet- ta-|to- ri,|no- bi- li spet- ta-|to- ri,|u- dret' hor|ho- ra quat- tro|bel- li~hu- mo-|
 c2 BA B4 c4 :|2 B4 A2 c4 B2 || c2 G2 GFGA |: G2 G2 z4 | z2 E2 EDEF | E2 E2 z2 E2 | EDEF G2 G2 | %14
w: * * * * ri.|bel- li~hu- mo- *|ri: Un ca- * * *|* ne,|un cuc- * * *|* co, un|chiú _ _ _ _ per|
 G2 ^FE F4 | G8 | z4 C2 D E | F2 E2 D2 C2 | z4 G2 A B | c2 d2 c2 B2 | z4 e2 d c | B2 A2 B2 c2 |1 %22
w: spas- * * *|so,|far con- trap-|pun- to~a men- te,|far con- trap-|pun- to~a men- te,|far con- trap-|pun- to~a men- te|
 d2 e2 d4 | e2 G2 GFGA :|2 G2 E2 D4 || C8 |] %26
w: so- pra~un bas-|so. Un ca- \-- \- *|so- pra~un bas-|so.|
V:2
 z8 | c2 c c B2 G2 | A4 G4 | F2 F F E2 C2 | D4 C4 | z2 C2 F3 F |1 D2 G2 F D E C || E2 DC D4 C4 :|2 %8
w: |No- bi- li spet- ta-|to- ri,|no- bi- li spet- ta-|to- ri,|u- dret' hor|ho- ra quat- tro bel- li~hu-|mo- * * * ri.|
 D3 G F D E C D4 || C2 E2 EDEF |: E2 E2 z4 | z2 G2 GFGA | G2 G2 z2 G2 | cBcd c2 B2 | B2 AG A4 | %15
w: ho- ra quat- tro bel- li~hu- mo-|ri: Un ca- * * *|* ne,|un cuc- * * *|* co, un|chiú _ _ _ _ per|spas- * * *|
 B8 | G2 A B c2 B2 | A2 G2 z4 | G2 A B c2 d2 | c2 B2 z4 | e2 d c B2 A2 | B2 c2 d2 e2 |1 d2 c4 B2 | %23
w: so,|far con- trap- pun- to~a|men- te,|far con- trap- pun- to~a|men- te,|far con- trap- pun- to~a|men- te so- pra~un|bas- * *|
 c2 E2 EDEF :|2 d2 c4 B2 || c8 |] %26
w: so. Un ca- \-- \- *|bas- * *|so.|
V:3
 z8 | z8 | z4 C2 C C | B,2 G,2 A,4 | G,4 z2 C,2 | F,3 F, D,3 D, |1 G,3 E, F,2 E,2 || G,8 C,4 :|2 %8
w: ||No- bi- li|spet- ta- to-|ri, u-|dret' hor ho- ra|quat- tro bel- li~hu-|mo- ri.|
 G,3 E, F,2 E,2 G,4 || C,8 |: z2 C2 CB,CD | C2 C2 z4 | z2 C2 CB,CD | C4 G,4 | D8 | G,4 G,2 A, B, | %16
w: quat- tro bel- li~hu- mo-|ri:|Un gat- * * *|* to,|un chiú _ _ _|_ per|spas-|so, far con- trap-|
 C2 B,2 A,2 G,2 | z4 D,2 E, F, | G,2 F,2 E,2 D,2 | A,2 G, F, E,2 D,2 | E,2 F,2 G,2 A,2 | G,8- |1 %22
w: pun- to~a men- te,|far con- trap-|pun- to~a men- te,|far con- trap- pun- to~a|men- te, so- pra~un|bas-|
 G,8 | C,8 :|2 G,8 || C,8 |] %26
w: |so|\--|so.|

